src/assets/svg-icons/discord-light-icon.svg

<svg width="41" height="42" viewBox="0 0 41 42" fill="none" xmlns="http://www.w3.org/2000/svg">
<path d="M10.683 28.212C18.3185 31.1918 24.8163 31.7722 32.1796 27.134C32.1256 27.215 30.6691 29.3729 26.8388 30.4787C27.648 31.5847 28.7539 32.8524 28.7539 32.8524C31.2086 32.8524 33.6092 32.1511 35.6862 30.8024C37.3046 29.7234 38.2217 27.8623 38.0328 25.9202C37.7092 22.6024 36.9269 19.3656 35.7131 16.2637C34.1756 12.2176 30.4803 9.41235 26.1914 9.00772C25.8138 8.98073 25.5441 8.98073 25.3823 8.98073L24.9507 9.41227C29.8869 10.8149 32.3415 12.9998 32.3954 13.0807C24.8158 9.25043 15.8606 9.19654 8.22696 12.9189C8.22696 12.9189 10.6546 10.5182 16.0223 9.25043L15.6987 8.92676C15.1322 8.92676 14.5927 8.98073 14.0263 9.06161C10.0612 9.73595 6.74343 12.4603 5.3138 16.2096C4.07299 19.4465 3.2638 22.8451 2.96711 26.2978C2.80527 28.132 3.66843 29.9393 5.17895 30.9912C7.17497 32.3129 9.54865 33.0143 11.9493 33.0143C11.9493 33.0143 12.9203 31.7465 13.8914 30.6136C10.25 29.5346 8.76645 27.3768 8.73946 27.2958L9.42477 27.6457C9.83445 27.8551 10.2545 28.0447 10.683 28.212ZM14.9164 25.8662C13.1631 25.8123 11.7875 24.3287 11.8414 22.5484C11.8954 20.8761 13.2441 19.5274 14.9164 19.4734C16.6698 19.5274 18.0454 21.0109 17.9914 22.7912C17.9105 24.4637 16.5888 25.8124 14.9164 25.8662ZM25.9217 25.8662C24.1684 25.8123 22.7927 24.3287 22.8467 22.5484C22.9006 20.8761 24.2493 19.5274 25.9217 19.4734C27.675 19.5274 29.0506 21.0109 28.9967 22.7912C28.9428 24.4637 27.594 25.8124 25.9217 25.8662Z" fill="#F5F5F5"/>
</svg>

<svg xmlns="http://www.w3.org/2000/svg" width="41" height="42" fill="none" viewBox="0 0 41 42"><path fill="#F5F5F5" d="M10.683 28.212c7.636 2.98 14.133 3.56 21.497-1.078-.054.081-1.51 2.239-5.341 3.345.809 1.106 1.915 2.373 1.915 2.373 2.455 0 4.855-.7 6.932-2.05 1.619-1.079 2.536-2.94 2.347-4.882a36.063 36.063 0 0 0-2.32-9.656 11.323 11.323 0 0 0-9.522-7.256c-.377-.027-.647-.027-.809-.027l-.431.431c4.936 1.403 7.39 3.588 7.444 3.669a27.196 27.196 0 0 0-24.168-.162s2.428-2.4 7.795-3.669l-.323-.323c-.567 0-1.106.054-1.673.135a11.37 11.37 0 0 0-8.712 7.148c-1.241 3.236-2.05 6.635-2.347 10.088-.162 1.834.701 3.641 2.212 4.693a12.3 12.3 0 0 0 6.77 2.023s.971-1.268 1.942-2.4c-3.641-1.08-5.125-3.237-5.152-3.318l.686.35c.41.21.83.399 1.258.566Zm4.233-2.346c-1.753-.054-3.129-1.537-3.075-3.318a3.184 3.184 0 0 1 3.075-3.075c1.754.054 3.13 1.538 3.075 3.318-.08 1.673-1.402 3.021-3.075 3.075Zm11.006 0c-1.754-.054-3.13-1.537-3.075-3.318a3.183 3.183 0 0 1 3.075-3.075c1.753.054 3.129 1.538 3.075 3.318a3.183 3.183 0 0 1-3.075 3.075Z"/></svg>
